elusive/gift.svg

<?xml version="1.0" encoding="UTF-8" standalone="no"?>
<!-- Generator: IcoMoon.io -->

<svg
   xmlns:dc="http://purl.org/dc/elements/1.1/"
   xmlns:cc="http://creativecommons.org/ns#"
   xmlns:rdf="http://www.w3.org/1999/02/22-rdf-syntax-ns#"
   xmlns:svg="http://www.w3.org/2000/svg"
   xmlns="http://www.w3.org/2000/svg"
   xmlns:sodipodi="http://sodipodi.sourceforge.net/DTD/sodipodi-0.dtd"
   xmlns:inkscape="http://www.inkscape.org/namespaces/inkscape"
   id="svg2"
   version="1.1"
   data-tags="remove-circle, cancel, close, remove, delete"
   height="1200"
   width="1200"
   data-du=""
   viewBox="0 0 1200 1200"
   inkscape:version="0.48.4 r9939"
   sodipodi:docname="gift.svg">
  <defs
     id="defs32" />
  <sodipodi:namedview
     pagecolor="#ffffff"
     bordercolor="#666666"
     borderopacity="1"
     objecttolerance="10"
     gridtolerance="10"
     guidetolerance="10"
     inkscape:pageopacity="0"
     inkscape:pageshadow="2"
     inkscape:window-width="1535"
     inkscape:window-height="876"
     id="namedview30"
     showgrid="false"
     inkscape:zoom="0.26339286"
     inkscape:cx="521.48018"
     inkscape:cy="-12.178293"
     inkscape:window-x="65"
     inkscape:window-y="24"
     inkscape:window-maximized="1"
     inkscape:current-layer="svg2" />
  <metadata
     id="metadata62">
    <rdf:RDF>
      <cc:Work
         rdf:about="">
        <dc:format>image/svg+xml</dc:format>
        <dc:type
           rdf:resource="http://purl.org/dc/dcmitype/StillImage" />
        <dc:title />
      </cc:Work>
    </rdf:RDF>
  </metadata>
  <path
     inkscape:connector-curvature="0"
     d="M 750.58811,371.76468 981.17632,225.88241 755.29414,0 609.41164,324.70594 524.70593,70.588354 298.82352,221.1764 l 188.23523,150.58828 -428.235225,0 0,301.17656 75.294135,0 0,527.05876 931.76454,0 0,-527.05876 75.2943,0 0,-301.17656 z M 774.34343,98.91071 892.53873,217.10601 651.43999,369.99539 z M 494.51281,158.58585 561.2518,358.80234 394.40469,225.32484 z m 30.19312,966.12005 -315.29413,0 0,-475.34935 315.29413,0 z m 0,-527.05881 -390.58827,0 0,-150.58826 390.58827,0 z m 465.88219,527.05881 -315.29413,0 0,-475.34935 315.29413,0 z m 75.29408,-527.05881 -390.58821,0 0,-150.58826 390.58821,0 z"
     id="path9760" />
</svg>

<?xml version="1.0" encoding="utf-8"?>
<!-- Generator: Adobe Illustrator 13.0.0, SVG Export Plug-In . SVG Version: 6.00 Build 14948)  -->
<!DOCTYPE svg PUBLIC "-//W3C//DTD SVG 1.1//EN" "http://www.w3.org/Graphics/SVG/1.1/DTD/svg11.dtd">
<svg version="1.1"
	 id="svg2" inkscape:version="0.48.4 r9939" sodipodi:docname="gift.svg" xmlns:dc="http://purl.org/dc/elements/1.1/" xmlns:cc="http://creativecommons.org/ns#" xmlns:rdf="http://www.w3.org/1999/02/22-rdf-syntax-ns#" xmlns:svg="http://www.w3.org/2000/svg" xmlns:sodipodi="http://sodipodi.sourceforge.net/DTD/sodipodi-0.dtd" xmlns:inkscape="http://www.inkscape.org/namespaces/inkscape"
	 xmlns="http://www.w3.org/2000/svg" xmlns:xlink="http://www.w3.org/1999/xlink" x="0px" y="0px" width="1200px" height="1200px"
	 viewBox="0 0 1200 1200" enable-background="new 0 0 1200 1200" xml:space="preserve">
<path id="path9760" inkscape:connector-curvature="0" d="M750.588,371.765l230.589-145.882L755.294,0L609.412,324.706
	L524.706,70.588L298.824,221.176l188.235,150.588H58.824v301.177h75.294V1200h931.764V672.941h75.295V371.765H750.588z
	 M774.344,98.911l118.195,118.195L651.44,369.996L774.344,98.911z M494.513,158.586l66.739,200.216L394.404,225.325L494.513,158.586
	z M524.706,1124.706H209.412v-475.35h315.294V1124.706z M524.706,597.647H134.118V447.059h390.588V597.647z M990.588,1124.706
	H675.294v-475.35h315.294V1124.706z M1065.882,597.647H675.294V447.059h390.588V597.647z"/>
</svg>
